X:1027
T:Auld Lang Syne
R:Air
C:Trad. Words by Burns.
O:Scotland
Z:Paul Hardy's Session Tunebook 2022 (see www.paulhardy.net). Creative Commons cc by-nc-sa licenced.
M:4/4
L:1/8
Q:1/4=100
K:D
A,2|"D"D3 D D2 F2|"A"E3 D E2 F2|"D"D3 D F2 A2|"G"B6|B2|"D"A3 F F2 D2|"A"E3 D E2 F2|"G"D3 B, B,2 A,2|"D"D6||
B2|"D"A3 F F2 D2|"A"E3 D E2 B2|"D"A3 F F2 A2|"G"B6|d2|"D"A3 F F2 D2|"A"E3 D E2 FE|"G"D3 B, B,2 "A7"A,2|"D"D6|]

